X: 1055
T: Hicazkâr Sazsemâîsi
C: Gazi Giray Han
O: Turkey
F: http://compmusic.upf.edu/node/140
N: hicazkar--sazsemaisi--aksaksemai----gazi_giray_han
N: makam= hicazkar
N: form= sazsemaisi
N: usul= aksaksemai = 10/8
M: 10/8
L: 1/16
K: C _1/4B _7/8e _7/8A ^f
Q: 1/4=120
%%MIDI tuningsystem comma53
g4 fg=a2 _b2a2 g2f4e2  | ded2 d2B2 c2B2 A2G4G2  | \
w:   |   | 
G4 G2Bc B2cd c2d4B2  | 
w:   | 
g4 d2e2 f2g2 =a2g4z2  | =a4 g2ga baag gfg4z2  | \
w:   |   | 
d4 e2=ag fefe ecd4z2  | 
w:   | 
B2c2 e2d2 cBBA AGG4A2  | g4 fg=a2 _b2a2 g2f4e2  | 
w:   |   | 
ded2 d2B2 c2B2 A2G4G2  | G4 G2Bc B2cd c2d4B2  | \
w:   |   | 
g4 d2e2 f2g2 =a2g4z2  | 
w:   | 
=a4 g2ga baag gfg4z2  | d4 e2=ag fefe ecd4z2  | 
w:   |   | 
B2c2 e2d2 cBBA AGG4A2  | G4 A2B2 ABc2 Bcd4B2  | 
w:   |   | 
c4 B2cd cBc2 A2B4G2  | A4 G2AB AGA2 B2G4G2  | \
w:   |   | 
d4 e2de dcB2 c2d4z4G4(3AGA G4 B2c2 d2c2  | 
w:   | 
B2e4d2 c3B BAAG G4  | A2G4A2 B2AB c2Bc d4  | \
w:   |   | 
B2c4B2 cdcB c2A2 B4  | 
w:   | 
G2A4G2 ABAG A2B2 G4  | G2d4e2 dedc B2c2 d4  | \
w:   |   | 
z4 G4 (3AGAG4B2 c2d2  | 
w:   | 
c2B2 e4 d2c3BBA AGG4A2 g4 g2f2 =a2ag fed4z2 e4 f2g2 a2ba gfg4z2 c'4 b2a4b2 g2_7/8a4z2 d4 edc2 d2B2 c2d4z2 g4 g2d4ed c2B4z2 e4 d2c2 B2BA AGG4A2 g4 fg=a2 _b2a2 g2f4e2 ded2 d2B2 c2B2 A2G4G2 G4 G2Bc B2cd c2d4B2 g4 d2e2 f2g2 a2g4z2 a4 g2ga _1/4baag gfg4z2 d4 e2ag fefe ecd4z2 B2c2 e2d2 cBBA AGG4A2 G4 A2B2 ABc2 Bcd4B2 c4 B2cd cBc2 A2B4G2 A4 G2AB AGA2 B2G4G2 d4 e2de dcB2 c2d4z4G4(3AGA G4 B2c2  | 
w:   | 
d2c2 B2e4d2 c3B BAAG  | G4 A2g4g2 f2=a2 agfe  | 
w:   |   | 
d4 z2e4f2 g2=a2 bagf  | g4 z2c'4b2 =a4 b2g2  | \
w:   |   | 
a4 z2d4ed c2d2 B2c2  | 
w:   | 
d4 z2g4g2 d4 edc2  | B4 z2e4d2 c2B2 BAAG  | \
w:   |   | 
G4 A2G4F2 E4 FGF2  | 
w:   | 
G4 G2G4A2 B2G2 A2F2  | G4 A2G4A2 BcB2 cdc2  | \
w:   |   | 
d4 z2e4de f2e2 d2c2  | 
w:   | 
d4 z2g4g2 d4 edc2  | B4 z2e4d2 c2B2 BAAG  | \
w:   |   | 
G4 A2g4fg =a2_b2 a2g2  | 
w:   | 
f4 e2de d2d2 B2c2 B2A2  | G4 G2G4G2 BcB2 cdc2  | \
w:   |   | 
d4 B2g4d2 e2f2 g2=a2  | 
w:   | 
g4 z2=a4g2 gaba aggf  | g4 z2d4e2 =agfe feec  | 
w:   |   | 
d4 z2B2 c2e2 d2cB BAAG  | G4 A2G4A2 B2AB c2Bc  | 
w:   |   | 
d4 B2c4B2 cdcB c2A2  | B4 G2A4G2 ABAG A2B2  | \
w:   |   | 
G4 G2d4e2 dedc B2c2  | 
w:   | 
d4 z4 G4 (3AGAG4B2  | c2d2 c2B2 e4 d2c3BBA  | \
w:   |   | 
AGG4A2 g4 g2f2 =a2ag  | 
w:   | 
fed4z2 e4 f2g2 =a2ba  | gfg4z2 c'4 b2=a4b2  | \
w:   |   | 
g2a4z2 d4 edc2 d2B2  | 
w:   | 
c2d4z2 g4 g2d4ed  | c2B4z2 e4 d2c2 B2BA  | \
w:   |   | 
AGG4A2 G4 F2E4FG  | 
w:   | 
F2G4G2 G4 A2B2 G2A2  | F2G4A2 G4 A2Bc B2cd  | \
w:   |   | 
c2d4z2 e4 def2 e2d2  | 
w:   | 
c2d4z2 g4 g2d4ed  | c2B4z2 e4 d2c2 B2BA  | \
w:   |   | 
AGG4A2 g2f2 =a2g4a2  | 
w:   | 
f4 e2d4c2 e2d2 c2e2  | d2c2 B2c2 d2c4G2 c4  | \
w:   |   | 
B2c4e2 d4 f2e2 d2c2  | 
w:   | 
B2c2 d2c2 B2_G2 B2A2 G2F4z2 |
w:   | 


